X:1
T:6 Lieder, Op.26
T:Frühes Sterben
T:Frau Clara Schumann freundlichst gewidmet
T:6 Lieder, Op.26
T:Josephine Lang
T:4. Frühes Sterben
T:Friedrich Mayer
T:Creative Commons copyright waiver (CC0 1.0 Universal)
C:Josephine Lang
Z:Friedrich Mayer (wrongly attributed to Heinrich Heine on the IMSLP edition #617266)
Z:Creative Commons copyright waiver (CC0 1.0 Universal)
%%score 1 { ( 2 3 ) | ( 4 5 ) }
L:1/8
Q:1/4=90
M:4/4
K:Db
V:1 treble nm="Singstimme\nVoice"
V:2 treble nm="Pianoforte"
V:3 treble 
V:4 bass 
V:5 bass 
V:1
"^Mässig und zierlich" z8 | z8 | z8 | z8 |:S!p! D3 F A2 B2 | A2 F2 D2 A,2 | D3 F!<(! A2 =A2!<)! | %7
w: ||||1. Wie die Wel- len|still sich le- gen|nach dem leich- ten|
w: ||||2. Spie- lend mit den|Früh- lings- lüf- ten|wird die Blu- me|
!>(! B2 c2!>)! d2 z2 |!p! D3 F A2 B2 | A2 F2 D2 A,2 | D3 F A2 =A2 | %11
w: A- bend- wind,|wie die Mut- ter|sorg- sam le- get|In den Schlaf ihr|
w: ro- sen- rot,|a- ber in dem|zar- ten Kel- che|schlum- mert auch ihr|
!<(!"^dim." (B2 d)!<)!!>(! c!pp! B4!>)! |!mp! c3 B!<(! A2 F2!<)! |!f!!>(! c3 B A2!>)! F2 | %14
w: lie- * bes Kind;|möch- te ich mein|heis- ses Seh- nen|
w: frü- * her Tod!|so ge- schieht’s auch|mei- ner Lie- be|
!mp! _G3 F E2 e2 |!<(! d2 c2 d4!<)! |!mf!!>(! c3 B A2 F2!>)! |!mp! c3 B A2 F2 | %18
w: in der See- le|wie- gen ein,|und die al- te|schlim- me Kla- ge|
w: in dem stets be-|weg- ten Herz,|hat ihr Lie- ben|auch be- gon- nen,|
[Q:1/4=89]!>(! _G3 F!>)!"^riten." E2!f! g2 |[Q:1/4=88] !^!f2 !^!e2 d4 |"^dimin." c3 B A2 A,2 | %21
w: sollt’ da- mit ver-|klun- gen sein,|sollt’ da- mit ver-|
w: fühlt sie schon des|To- des Schmerz,|fühlt sie schon des|
"^riten."[Q:1/4=84] F3 E[Q:1/4=78] D4 |[Q:1/4=89] z8 | z8 | z8 |"_Heine." z8 :| %26
w: klun- gen sein.|||||
w: To- des Schmerz.|||||
V:2
!mp! G3 F!<(! E z e2 | d2 c2!<)!!mf! d2!mp! A2 |!<(! G3 F E z!f! g2!<)! |!>(! f3 e d4!>)! |: %4
!pp! z2 [DF]2 z2 [DF]2 | z2 [DF]2 z2 [DF]2 | z2 [DF]2!<(! z2 [DF]2!<)! | %7
!>(! z2 [EF]2 z2!>)! [DF]2 |!p! z2 [DF]2 z2 [DF]2 | z2 [DF]2 z2 [DF]2 | z2 [DF]2 z2"_dim." [EF-]2 | %11
!<(! [DF]2 [E=A]2!<)!!pp!!>(! [DFB]4!>)! |!p! z2 [C=G]2!<(! z2 [CF]2!<)! | %13
"_cresc." z2 [C=G]2 z2 [CF]2 | z2 [B,E_G]2!f! z2 [B,EB]2 | z2 [CEGA]2 z2 [A,DFA]2 | %16
!p! z2 [C=G]2 z2 [CF]2 | z2 [C=G]2 z2 [CF]2 | z2 [B,E_G]2 z2!f! [B,EB]2 | %19
"_cresc." z2 [E=Ac]2 z2 [DFBd]2 |"_dimin." z2 [B,D=E]2 z2 [A,DF]2 | %21
 z2"_rit." [G,CEA]2 z2!pp! [F,A,DF]2 |!mf! G3 F E z !^!e2 | d2 [Ac]2 d2 A2 | G3 F E z!f! g2 | %25
 f3 e !fermata![Fd]4 :| %26
V:3
 x6 [EB]2 | z2 [EG]2 z2 [DF]2 | x6 [GB]2 | z2 [GAc]2 z2!mp! [FA]2 |: x8 | x8 | x8 | x8 | x8 | x8 | %10
 x8 | x8 | x8 | x8 | x8 | x8 | x8 | x8 | x8 | x8 | x8 | x8 | %22
 z2[I:staff +1] [G,B,]2[I:staff -1] E2 [EB]2 | z2 [EG]2 z2 [DF]2 | %24
 z2[I:staff +1] [G,B,]2[I:staff -1] E2 [GB]2 | z2 [GAc]2 x4 :| %26
V:4
!p!!ped! z2 .[G,B,]2!ped-up! z2 .[E,B,]2 |!ped! A,,2 ([E,A,]2!ped-up! D,,2) .[D,A,]2 | %2
!ped! z2 [G,B,]2!ped-up! z2 [E,B,]2 |!ped! A,,2 ([E,A,]2!ped-up!!ped! D,,2) [D,A,]2!ped-up! |: %4
!p! D,3 F, A,2 B,2 | A,2 F,2 D,2 A,,2 | D,3 F, A,2 =A,2 | B,2 F,2 B,,4 | D,3 F, A,2 B,2 | %9
 A,2 F,2 D,2 A,,2 | D,3 F, A,2 =A,2 | B,2 F,2 z2 B,,2 | [=E,B,]2 C,2 [F,A,]2 C,2 | %13
 [=E,B,]2 C,2 [F,A,]2 C,2 | [E,,E,]2 z2 [G,,G,]2 z2 | [A,,A,]2 z2 [D,,D,]2 z2 | %16
 [=E,B,]2 C,2 [F,A,]2 C,2 | [=E,B,]2 C,2 [F,A,]2 C,2 | E,,2 z2"^riten." [G,,G,]2 z2 | %19
 [F,,F,]2 z2 B,,2 z2 | =G,,4 A,,4 | [A,,,A,,]4 D,,2 [A,,D,]2 | %22
!ped! E,,2 [B,,E,]2!ped-up! G,,2 [E,B,]2 |!ped! A,,2 [E,A,]2!ped-up! D,,2 [D,A,]2 | %24
!ped! E,,2 [B,,E,]2!ped-up! G,,2 [E,B,]2 | %25
!ped! A,,2 [E,A,]2!ped-up!!ped! !fermata![D,A,]4!ped-up! :| %26
V:5
 E,,2 [B,,E,]2 G,,2 x2 | x8 | E,,2 [B,,E,]2 G,,2 x2 | x8 |: x8 | x8 | x8 | x8 | x8 | x8 | x8 | x8 | %12
 x8 | x8 | x8 | x8 | x8 | x8 | x8 | x8 | x8 | x8 | x8 | x8 | x8 | x8 :| %26

